app/images/brands/Sprite.svg

<svg width="80" height="34" viewBox="0 0 80 34" fill="none" xmlns="http://www.w3.org/2000/svg">
<path fill-rule="evenodd" clip-rule="evenodd" d="M54.1362 0.00334809C53.2391 0.0676939 52.4373 0.325077 51.8288 0.646806C50.611 1.28983 48.3036 3.89455 48.3036 3.89455C46.8929 5.69494 48.4315 5.92016 48.4315 5.92016C48.4315 5.95233 48.4631 5.95233 48.4956 5.95233C48.2591 6.18742 48.0345 6.43425 47.8226 6.69188C47.4377 7.14187 47.2774 7.52794 47.2453 7.8175V8.10705C47.3415 8.62139 47.95 8.71791 47.95 8.71791C50.4507 9.13616 49.8417 10.6474 52.0208 11.6761C52.7901 12.03 53.4957 12.2226 54.1362 12.3196C55.803 12.5126 57.1179 11.9339 58.0146 11.4513C60.0659 10.2939 60.8993 8.62182 61.0913 8.46095C61.2516 8.30009 61.9893 7.04621 60.8347 6.66056C61.2196 6.14579 61.4761 5.72798 61.5724 5.66363C61.6686 5.59928 61.9563 5.11712 61.9563 4.69887C61.9563 4.28105 61.7643 3.89498 60.9951 3.79846C59.4249 3.50933 59.0084 2.22285 57.0846 0.872445C56.0913 0.164213 55.0654 -0.0288248 54.1362 0.00334809ZM54.1362 11.1931C52.374 10.9683 51.4119 9.71398 50.7714 8.97443C50.0983 8.20271 49.329 7.84881 48.9758 7.75272C48.6235 7.68838 48.5918 7.72055 48.7193 7.52751C48.848 7.33448 49.521 6.59493 49.521 6.59493C51.1554 8.94226 53.0787 9.61746 54.1362 9.84267C54.6173 9.93919 54.9055 9.90702 54.9055 9.90702C56.8605 10.2927 59.6177 8.39575 59.6177 8.39575C58.8485 9.29616 57.1179 11.1931 54.7781 11.2252C54.5527 11.2252 54.3291 11.2252 54.1362 11.1931Z" fill="#FFF22D"/>
<path fill-rule="evenodd" clip-rule="evenodd" d="M20.4175 23.5727C19.1136 26.82 17.8101 30.0674 16.507 33.3151H23.8153C23.8153 33.3151 22.5008 32.6399 23.1739 30.6147C23.879 28.5886 24.552 26.7239 24.552 26.7239C24.552 26.7239 24.6483 26.5304 24.8086 26.6596C24.8086 26.6596 25.2892 27.7848 27.5971 27.7204C27.7895 27.6887 28.014 27.6887 28.206 27.6569C30.3214 27.4643 32.4692 26.4674 33.6866 23.5405C33.9753 22.8336 34.2956 22.1262 34.5842 21.4184C35.6737 18.8463 36.4751 16.3064 34.7125 14.7951C34.6804 14.7629 34.6163 14.7307 34.5842 14.6986C33.1739 13.6051 31.3788 13.7016 28.2055 13.766C26.8594 13.766 25.2568 13.7982 23.3334 13.7016L22.4358 13.8625C22.4358 13.8625 23.8144 14.6986 23.173 16.4994C22.9177 17.2376 21.7315 20.2928 20.4175 23.5727ZM77.6628 27.013C78.3996 26.7887 79.041 26.1452 79.233 25.2444C79.4896 24.1192 78.849 23.3792 77.9194 23.3792C77.8223 23.3792 77.7591 23.4118 77.6628 23.4118C77.2459 23.4762 76.8611 23.6692 76.5404 23.9579C76.2838 24.1831 76.0602 24.5048 75.8998 24.8587C75.8673 24.987 75.8357 25.1161 75.8036 25.244C75.7074 25.6948 75.7711 26.1126 75.8998 26.4018C76.0602 26.6591 76.2522 26.8843 76.5404 26.9809C76.7332 27.0452 76.9252 27.0774 77.1501 27.0774V27.1091C77.3254 27.1085 77.4991 27.0759 77.6628 27.013ZM77.6628 22.8649C77.7907 22.8331 77.9194 22.8331 78.0468 22.8331C79.2972 22.8331 80.2584 23.734 79.9377 25.2444C79.6812 26.4987 78.7199 27.3348 77.6628 27.5921C77.4384 27.6239 77.2459 27.6565 77.0214 27.6565C76.8611 27.6565 76.7007 27.6239 76.5404 27.6239C76.3167 27.5604 76.0918 27.4956 75.8998 27.3995C75.2584 27.0135 74.9061 26.2744 75.098 25.2448C75.2584 24.634 75.5475 24.1196 75.8998 23.7344C76.0911 23.5458 76.3065 23.3835 76.5404 23.2518C76.8936 23.0584 77.278 22.8975 77.6628 22.8649ZM77.6628 26.3704L77.3421 25.4379H77.0856L76.8611 26.5304H76.3167L76.5404 25.4053L76.8611 23.9266H77.8223C78.4954 23.9266 78.8486 24.1192 78.7203 24.7301C78.6241 25.2126 78.3034 25.3735 77.9511 25.4053L78.368 26.5304H77.7266L77.6628 26.3704ZM77.6628 24.3762H77.6945C77.919 24.3762 78.1756 24.4088 78.1431 24.6661C78.0798 24.9553 77.9194 25.0196 77.6628 25.0196H77.1818L77.3105 24.3762H77.6628ZM76.5404 14.859C76.9252 15.5985 76.7649 16.4024 76.7007 16.8524C76.7007 17.0768 76.6366 17.3668 76.5404 17.6559C76.3693 18.2392 76.1552 18.8088 75.8998 19.3602C75.6108 20.068 75.3225 20.6145 75.3225 20.6145H67.9822C67.1813 22.254 67.4695 24.5692 70.0976 24.4409C70.2263 24.4409 70.3541 24.4409 70.4824 24.4092C72.9185 24.184 74.5849 22.8331 74.5849 22.8331L73.4949 25.6626C73.4949 25.6626 72.7902 26.8204 70.4824 27.3022C69.6815 27.4956 68.6553 27.5921 67.4374 27.5274C65.7069 27.4639 64.5211 26.9813 63.7519 26.2739C60.9951 23.7975 63.367 18.5567 63.1421 19.1028C63.2708 18.7811 63.4628 18.235 63.7519 17.5594C64.5853 15.7268 66.3475 13.0904 70.4824 12.9295H71.1555C73.7194 12.9938 75.1618 13.476 75.8994 14.0873C76.2205 14.3442 76.4125 14.6016 76.5404 14.859ZM70.4829 18.5567H71.3479C71.7328 18.4924 73.1426 15.9198 71.2838 15.7272C70.9956 15.6951 70.7074 15.7594 70.4829 15.8559C69.2325 16.3703 68.7523 18.428 68.7523 18.428C68.7198 18.5572 68.8802 18.5572 68.8802 18.5572H70.4829V18.5567ZM63.7523 15.6946H64.1692L65.0988 13.5082H62.8547L63.7527 11.2252L64.7781 8.68483H62.7906C60.4832 13.9903 56.0917 13.5082 56.0917 13.5082L55.1945 15.6946H56.7972L53.4957 23.9262L52.0533 27.4952H59.7452C57.7264 26.5944 58.367 24.9231 58.367 24.9231C58.367 24.9231 60.6427 19.0063 62.0209 15.6946H63.7523ZM53.4957 17.045C52.1166 20.4215 50.3865 24.9231 50.3865 24.9231C50.3865 24.9231 49.8092 26.4983 51.4765 27.4952H43.7838L46.0279 21.9327L49.3611 13.6043H54.9384C54.6814 14.119 54.1362 15.4699 53.4957 17.045ZM46.0275 17.785C45.5464 17.4633 44.6484 17.1742 43.3348 18.0424C41.6043 19.1993 40.0016 24.9235 40.0016 24.9235C40.0016 24.9235 39.6492 26.7887 41.0916 27.4956H33.4309C33.4309 27.4956 33.9116 26.3061 34.5846 24.6661C35.8666 21.4506 37.8221 16.6272 37.8541 16.4664C37.9183 16.1772 38.8479 14.8907 37.4056 13.7334H42.8221L42.341 15.1481C42.341 15.1481 42.3735 15.3733 42.5655 15.1481C42.7259 14.9873 43.7196 13.7977 46.0275 13.3795C46.6364 13.2508 47.3736 13.1864 48.239 13.2508L46.3482 18.0737C46.3482 18.0741 46.2511 17.9133 46.0275 17.785ZM28.206 23.6692C27.7891 24.4409 27.3084 24.8587 26.5396 24.7301C25.001 24.4727 27.6291 19.5541 28.1102 17.9781C28.1102 17.9781 28.1423 17.8489 28.2064 17.6889C28.4309 17.142 28.9436 16.0807 29.6808 16.4346C30.6104 16.8529 30.5783 17.3989 29.5846 20.0358C29.0715 21.4506 28.687 22.801 28.206 23.6692ZM24.2959 7.59224L21.6995 12.4795C21.6995 12.4795 21.6353 10.1322 20.4175 8.7496C19.8086 8.0744 18.9752 7.62398 17.7253 7.75267C13.9431 8.10657 14.9368 11.6113 15.3854 12.7369C15.3854 12.7369 18.5907 20.7436 18.6224 21.3215C18.6865 21.9006 19.8082 24.6661 17.0839 27.7843C17.0839 27.7843 13.013 33.572 4.13456 30.5499C4.13456 30.5499 0.929195 29.4565 0 26.2091L3.68599 21.5149C3.68599 21.5149 2.66059 27.6561 8.42989 27.1735C13.8468 26.6909 10.1288 19.5206 9.80808 18.6528C9.2633 17.0768 5.96173 9.7461 9.77601 6.3701C12.5007 3.92625 17.0197 3.21888 20.4175 4.37667C22.1164 4.95535 23.5587 6.01663 24.2959 7.59224Z" fill="#33A457"/>
</svg>

<svg width="80" height="34" fill="none" xmlns="http://www.w3.org/2000/svg"><path fill-rule="evenodd" clip-rule="evenodd" d="M54.136.003a5.914 5.914 0 00-2.307.644c-1.218.643-3.525 3.248-3.525 3.248-1.411 1.8.127 2.025.127 2.025 0 .032.032.032.065.032a9.996 9.996 0 00-.673.74c-.385.45-.546.836-.578 1.125v.29c.097.514.705.61.705.61 2.5.42 1.892 1.93 4.07 2.96.77.353 1.476.546 2.116.643 1.667.193 2.982-.386 3.879-.869 2.05-1.157 2.884-2.83 3.076-2.99.16-.16.898-1.415-.256-1.8.385-.515.641-.933.737-.997.097-.065.384-.547.384-.965 0-.418-.192-.804-.96-.9-1.571-.29-1.988-1.576-3.911-2.927-.994-.708-2.02-.9-2.949-.869zm0 11.19c-1.762-.225-2.724-1.479-3.365-2.219-.673-.771-1.442-1.125-1.795-1.221-.352-.065-.384-.032-.257-.225.129-.194.802-.933.802-.933 1.634 2.347 3.558 3.022 4.615 3.248.481.096.77.064.77.064 1.955.386 4.712-1.511 4.712-1.511-.77.9-2.5 2.797-4.84 2.83-.225 0-.449 0-.642-.033z" fill="#FFF22D"/><path fill-rule="evenodd" clip-rule="evenodd" d="M20.418 23.573l-3.911 9.742h7.308s-1.314-.675-.641-2.7c.705-2.026 1.378-3.891 1.378-3.891s.096-.194.257-.064c0 0 .48 1.125 2.788 1.06.192-.031.417-.031.609-.063 2.115-.193 4.263-1.19 5.48-4.116.29-.707.61-1.415.898-2.123 1.09-2.572 1.891-5.112.128-6.623-.032-.032-.096-.064-.128-.096-1.41-1.094-3.205-.997-6.379-.933-1.346 0-2.948.032-4.872-.064l-.897.16s1.378.837.737 2.637c-.255.739-1.441 3.794-2.755 7.074zm57.245 3.44c.737-.224 1.378-.868 1.57-1.769.257-1.125-.384-1.865-1.314-1.865-.097 0-.16.033-.256.033a2.176 2.176 0 00-1.123.546c-.256.225-.48.547-.64.9l-.096.386c-.097.45-.033.869.096 1.158.16.257.352.482.64.579.193.064.385.096.61.096v.032c.175 0 .35-.033.513-.096zm0-4.148c.128-.032.256-.032.384-.032 1.25 0 2.211.901 1.89 2.411a3.042 3.042 0 01-2.274 2.348c-.225.032-.417.065-.642.065-.16 0-.32-.033-.48-.033a3.73 3.73 0 01-.641-.224c-.642-.386-.994-1.126-.802-2.155a3.58 3.58 0 01.802-1.51 3.03 3.03 0 01.64-.483c.354-.194.738-.354 1.123-.387zm0 3.505l-.32-.932h-.257l-.225 1.092h-.544l.223-1.125.321-1.478h.961c.673 0 1.027.192.898.803-.096.483-.417.643-.769.675l.417 1.125h-.641l-.064-.16zm0-1.994h.032c.224 0 .48.033.448.29-.063.29-.224.354-.48.354h-.481l.129-.644h.352zM76.54 14.86c.385.74.225 1.543.16 1.993 0 .225-.063.515-.16.804a12.277 12.277 0 01-.64 1.704c-.29.708-.578 1.255-.578 1.255h-7.34c-.8 1.639-.513 3.954 2.116 3.826.128 0 .256 0 .384-.032 2.436-.225 4.103-1.576 4.103-1.576l-1.09 2.83s-.705 1.157-3.013 1.64c-.8.193-1.827.29-3.045.224-1.73-.063-2.916-.546-3.685-1.253-2.757-2.477-.385-7.717-.61-7.171.129-.322.32-.868.61-1.544.833-1.832 2.595-4.469 6.73-4.63h.674c2.563.065 4.006.547 4.743 1.158.322.257.513.515.641.772zm-6.057 3.698h.865c.385-.065 1.795-2.637-.064-2.83a1.623 1.623 0 00-.801.129c-1.25.514-1.73 2.572-1.73 2.572-.033.13.127.13.127.13h1.603v-.001zm-6.73-2.862h.416l.93-2.187h-2.244l.898-2.283 1.025-2.54h-1.987c-2.308 5.305-6.7 4.823-6.7 4.823l-.897 2.187h1.603l-3.301 8.231-1.443 3.57h7.692c-2.019-.902-1.378-2.573-1.378-2.573s2.276-5.917 3.654-9.228h1.731zm-10.257 1.35c-1.38 3.377-3.11 7.878-3.11 7.878s-.577 1.575 1.09 2.572h-7.692l2.244-5.562 3.333-8.329h5.577c-.257.515-.802 1.866-1.442 3.441zm-7.468.74c-.482-.322-1.38-.61-2.693.257-1.73 1.157-3.333 6.881-3.333 6.881s-.353 1.866 1.09 2.573H33.43s.48-1.19 1.154-2.83c1.282-3.215 3.237-8.039 3.27-8.2.063-.289.993-1.575-.45-2.733h5.417l-.481 1.415s.032.225.224 0c.16-.16 1.155-1.35 3.463-1.768a7.819 7.819 0 012.211-.13l-1.89 4.824s-.098-.16-.321-.289zM28.206 23.67c-.417.772-.898 1.19-1.666 1.061-1.539-.257 1.09-5.176 1.57-6.752 0 0 .032-.13.096-.29.225-.546.738-1.607 1.475-1.253.93.418.897.964-.096 3.6-.514 1.416-.898 2.766-1.379 3.634zm-3.91-16.077L21.7 12.48s-.065-2.348-1.282-3.73c-.61-.676-1.443-1.126-2.693-.997-3.782.354-2.788 3.858-2.34 4.984 0 0 3.206 8.007 3.237 8.585.064.579 1.186 3.344-1.538 6.462 0 0-4.071 5.788-12.95 2.766 0 0-3.205-1.094-4.134-4.34l3.686-4.695s-1.025 6.141 4.744 5.659c5.417-.483 1.699-7.653 1.378-8.521-.545-1.576-3.846-8.907-.032-12.283 2.725-2.444 7.244-3.151 10.642-1.993 1.698.578 3.14 1.64 3.878 3.215z" fill="#33A457"/></svg>
